assets/pool.svg

<?xml version="1.0" encoding="UTF-8"?>
<svg width="20px" height="18px" viewBox="0 0 20 18" version="1.1" xmlns="http://www.w3.org/2000/svg" xmlns:xlink="http://www.w3.org/1999/xlink">
    <!-- Generator: Sketch 47.1 (45422) - http://www.bohemiancoding.com/sketch -->
    <title>Mask</title>
    <desc>Created with Sketch.</desc>
    <defs>
        <path d="M20,18 C18.89,18 18.27,17.63 17.82,17.36 C17.45,17.14 17.22,17 16.67,17 C16.11,17 15.89,17.13 15.52,17.36 C15.06,17.63 14.45,18 13.34,18 C12.23,18 11.61,17.63 11.16,17.36 C10.79,17.14 10.56,17 10.01,17 C9.45,17 9.23,17.13 8.86,17.36 C8.4,17.63 7.78,18 6.67,18 C5.56,18 4.94,17.63 4.49,17.36 C4.12,17.13 3.89,17 3.34,17 C2.79,17 2.56,17.13 2.19,17.36 C1.73,17.63 1.11,18 0,18 L0,16 C0.56,16 0.78,15.87 1.15,15.64 C1.61,15.37 2.23,15 3.34,15 C4.45,15 5.07,15.37 5.52,15.64 C5.89,15.87 6.11,16 6.67,16 C7.23,16 7.45,15.87 7.82,15.64 C8.28,15.37 8.9,15 10.01,15 C11.12,15 11.74,15.37 12.19,15.64 C12.56,15.86 12.79,16 13.34,16 C13.89,16 14.12,15.87 14.49,15.64 C14.94,15.37 15.56,15 16.67,15 C17.78,15 18.4,15.37 18.85,15.64 C19.22,15.87 19.44,16 20,16 L20,18 Z M20,13.5 C18.89,13.5 18.27,13.13 17.82,12.86 C17.45,12.64 17.22,12.5 16.67,12.5 C16.11,12.5 15.89,12.63 15.52,12.86 C15.07,13.13 14.45,13.5 13.34,13.5 C12.23,13.5 11.61,13.13 11.16,12.86 C10.79,12.64 10.56,12.5 10.01,12.5 C9.45,12.5 9.23,12.63 8.86,12.86 C8.41,13.13 7.79,13.5 6.68,13.5 C5.57,13.5 4.95,13.13 4.5,12.86 C4.13,12.64 3.9,12.5 3.35,12.5 C2.8,12.5 2.57,12.63 2.2,12.86 C1.73,13.13 1.11,13.5 0,13.5 L0,11.5 C0.56,11.5 0.78,11.37 1.15,11.14 C1.6,10.87 2.22,10.5 3.33,10.5 C4.44,10.5 5.06,10.87 5.51,11.14 C5.88,11.36 6.11,11.5 6.66,11.5 C7.22,11.5 7.44,11.37 7.81,11.14 C8.26,10.87 8.88,10.5 9.99,10.5 C11.1,10.5 11.72,10.87 12.17,11.14 C12.54,11.36 12.77,11.5 13.32,11.5 C13.87,11.5 14.1,11.37 14.47,11.14 C14.92,10.87 15.54,10.5 16.65,10.5 C17.76,10.5 18.38,10.87 18.83,11.14 C19.2,11.36 19.43,11.5 19.98,11.5 L19.98,13.5 L20,13.5 Z M6.67,9 C6.11,9 5.89,8.87 5.52,8.64 C5.31,8.52 5.06,8.37 4.75,8.25 L8,5 L7,4 C5.89,2.89 4.82,2.49 3,2.5 L3,-1.33226763e-15 C5.5,-0.01 6.93,0.45 8.48,2 L14.9,8.41 C14.75,8.49 14.61,8.57 14.49,8.64 C14.12,8.87 13.89,9 13.34,9 C12.79,9 12.56,8.86 12.19,8.64 C11.74,8.37 11.12,8 10.01,8 C8.9,8 8.28,8.37 7.82,8.64 C7.45,8.87 7.23,9 6.67,9 Z M14.5,5 C13.1192881,5 12,3.88071187 12,2.5 C12,1.11928813 13.1192881,-4.44116315e-16 14.5,-4.44116315e-16 C15.8807119,-4.44116315e-16 17,1.11928813 17,2.5 C17,3.88071187 15.8807119,5 14.5,5 Z" id="path-1"></path>
    </defs>
    <g id="Icons" stroke="none" stroke-width="1" fill="none" fill-rule="evenodd">
        <g id="amenitiy-/-pool" transform="translate(-2.000000, -3.000000)">
            <g id="pool">
                <g id="Icon-🎨" transform="translate(2.000000, 3.000000)">
                    <mask id="mask-2" fill="white">
                        <use xlink:href="#path-1"></use>
                    </mask>
                    <use id="Mask" fill="#001833" fill-rule="nonzero" xlink:href="#path-1"></use>
                </g>
            </g>
        </g>
    </g>
</svg>

<?xml version="1.0" encoding="utf-8"?>
<!-- Generator: Adobe Illustrator 21.1.0, SVG Export Plug-In . SVG Version: 6.00 Build 0)  -->
<svg version="1.1" id="Layer_1" xmlns="http://www.w3.org/2000/svg" xmlns:xlink="http://www.w3.org/1999/xlink" x="0px" y="0px"
	 viewBox="0 0 20 18" style="enable-background:new 0 0 20 18;" xml:space="preserve">
<style type="text/css">
	.st0{fill:#001833;}
</style>
<path id="path-1_1_" class="st0" d="M20,18c-1.1,0-1.7-0.4-2.2-0.6c-0.4-0.2-0.6-0.4-1.1-0.4c-0.6,0-0.8,0.1-1.1,0.4
	c-0.5,0.3-1.1,0.6-2.2,0.6s-1.7-0.4-2.2-0.6C10.8,17.1,10.6,17,10,17c-0.6,0-0.8,0.1-1.2,0.4C8.4,17.6,7.8,18,6.7,18
	s-1.7-0.4-2.2-0.6C4.1,17.1,3.9,17,3.3,17s-0.8,0.1-1.1,0.4C1.7,17.6,1.1,18,0,18v-2c0.6,0,0.8-0.1,1.1-0.4C1.6,15.4,2.2,15,3.3,15
	s1.7,0.4,2.2,0.6C5.9,15.9,6.1,16,6.7,16s0.8-0.1,1.2-0.4C8.3,15.4,8.9,15,10,15s1.7,0.4,2.2,0.6c0.4,0.2,0.6,0.4,1.2,0.4
	s0.8-0.1,1.1-0.4c0.4-0.3,1.1-0.6,2.2-0.6s1.7,0.4,2.2,0.6c0.4,0.2,0.6,0.4,1.1,0.4V18z M20,13.5c-1.1,0-1.7-0.4-2.2-0.6
	c-0.4-0.2-0.6-0.4-1.1-0.4c-0.6,0-0.8,0.1-1.1,0.4c-0.5,0.3-1.1,0.6-2.2,0.6s-1.7-0.4-2.2-0.6c-0.4-0.2-0.6-0.4-1.1-0.4
	c-0.6,0-0.8,0.1-1.2,0.4c-0.4,0.3-1.1,0.6-2.2,0.6s-1.7-0.4-2.2-0.6c-0.4-0.2-0.6-0.4-1.2-0.4s-0.8,0.1-1.1,0.4
	c-0.5,0.3-1.1,0.6-2.2,0.6v-2c0.6,0,0.8-0.1,1.1-0.4c0.5-0.3,1.1-0.6,2.2-0.6s1.7,0.4,2.2,0.6c0.4,0.2,0.6,0.4,1.1,0.4
	c0.6,0,0.8-0.1,1.2-0.4c0.5-0.3,1.1-0.6,2.2-0.6s1.7,0.4,2.2,0.6c0.4,0.2,0.6,0.4,1.1,0.4c0.6,0,0.8-0.1,1.2-0.4
	c0.4-0.3,1.1-0.6,2.2-0.6s1.7,0.4,2.2,0.6c0.4,0.2,0.6,0.4,1.1,0.4L20,13.5L20,13.5z M6.7,9C6.1,9,5.9,8.9,5.5,8.6
	C5.3,8.5,5.1,8.4,4.8,8.2L8,5L7,4C5.9,2.9,4.8,2.5,3,2.5V0c2.5,0,3.9,0.4,5.5,2l6.4,6.4c-0.1,0.1-0.3,0.2-0.4,0.2
	C14.1,8.9,13.9,9,13.3,9s-0.8-0.1-1.2-0.4C11.7,8.4,11.1,8,10,8S8.3,8.4,7.8,8.6C7.4,8.9,7.2,9,6.7,9z M14.5,5C13.1,5,12,3.9,12,2.5
	S13.1,0,14.5,0S17,1.1,17,2.5S15.9,5,14.5,5z"/>
</svg>
